!!!!SEGMENT: pl-sa--11-a-i-11--002_anonim--passio-domini-nostri-witaj-jezu.krn
!!!cenid: 18xx:1324
!!!COM: Anonim
!!!COM-rismID: pe30004985
!!!CDT:
!!!CNT:
!!!OPR: Passio Domini Nostri
!!!OTL: Witaj Jezu
!!!OMV: 002
!!!PDT: 1815
!!!AGN: Sacred
!!!SMS-siglum: PL-SA
!!!SMS-shelfmark: 11/A I 11
!!!SMS-shelfwork: 001-002 M
!!!SMS-variant:
!!!SMS-altvar:
!!!NIFC-rismSourceID: 1001076834
!!!NIFC-rismChildID: 1001076834
!!!NIFC-islandoraID: none
!!!URL-pdf-islandora:
!!!URL-scan: https://bc.bdsandomierz.pl/dlibra/publication/1277/edition/1245/content @EN{Scan in the Sandomierz Diocese Digital Library} @PL{Skany w portalu Cyfrowa Biblioteka Diecezjalna w Sandomierzu}
!!!ONB-nifc: UWAGA: części Pasji: 1. Pars I – Passio Domini nostri, 2. Pars I – Plankt – Witaj Jezu, 3. Pars II – Apprehendit, 4. Pars II – Tolle crucifige, 5. Pars II – Plankt – Oto przybity do krzyża, 6. Pars III – Orabat
!!!AIN: 1 organ 2 soprn 2 violn
!!!key: e
**kern	**kern	**kern	**dynam	**kern	**text	**kern	**text
*part5	*part4	*part3	*part3	*part2	*part2	*part1	*part1
*staff5	*staff4	*staff3	*	*staff2	*staff2	*staff1	*staff1
*I"Organo.	*I"Violino Secundo.	*I"Violino Primo.	*	*I"Canto 2do.	*	*I"Canto Primo.	*
*I'org	*I'vl 2	*I'vl 1	*	*I'S 2	*	*I'S 1	*
*Iorgan	*Ivioln	*Ivioln	*	*Isoprn	*	*Isoprn	*
*ICklav	*ICstr	*ICstr	*	*ICvox	*	*ICvox	*
*clefF4	*clefG2	*clefG2	*	*clefC1	*	*clefC1	*
*k[f#]	*k[f#]	*k[f#]	*	*k[f#]	*	*k[f#]	*
*e:	*e:	*e:	*	*e:	*	*e:	*
*M3/4	*M3/4	*M3/4	*	*M3/4	*	*M3/4	*
=1	=1	=1	=1	=1	=1	=1	=1
*2\right	*2\right	*2\right	*above	*2\right	*	*2\right	*
!LO:TX:b:t=Witay Jezu.	!	!	!	!LO:TX:t=10.	!	!LO:TX:t=8.	!
!LO:TX:t=Plankt.	!LO:TX:b:t=Witay Jezu	!LO:TX:b:t=Witay Jezu	!	!LO:TX:t=Pla	!	!LO:TX:t=Plankt.	!
4E\	8r	4.ee\	f	2.r	.	2.r	.
.	8b/	.	.	.	.	.	.
*	*tremolo	*	*	*	*	*	*
4r	8b/L	.	.	.	.	.	.
.	8b/	16gg\LL	.	.	.	.	.
.	.	16ff#\JJ	p	.	.	.	.
4r	8b/	16aa\LL	.	.	.	.	.
.	.	16gg\	.	.	.	.	.
.	8b/J	16ff#\	.	.	.	.	.
.	.	16ee\JJ	.	.	.	.	.
=2	=2	=2	=2	=2	=2	=2	=2
8r	8r	8ee\L	.	2.r	.	2.r	.
8BB/L	8f#/ 8b	8dd#X\J	.	.	.	.	.
8D#X/	8f#/ 8bL	2dd#\	.	.	.	.	.
8F#/	8f#/ 8b	.	.	.	.	.	.
8D#/	8f#/ 8b	.	.	.	.	.	.
8BB/J	8f#/ 8bJ	.	.	.	.	.	.
=3	=3	=3	=3	=3	=3	=3	=3
4D#X\	4.dd#X\	4.ff#\	.	2.r	.	2.r	.
4r	.	.	.	.	.	.	.
.	16ff#\LL	16aa\LL	.	.	.	.	.
.	16dd#\JJ	16ff#\JJ	.	.	.	.	.
4r	16gg\LL	16bb\LL	.	.	.	.	.
.	16ff#\	16aa\	.	.	.	.	.
.	16ee\	16gg\	.	.	.	.	.
.	16dd#\JJ	16ff#\JJ	.	.	.	.	.
=4	=4	=4	=4	=4	=4	=4	=4
8r	4ee\	4gg\	.	2.r	.	2.r	.
8B\L	.	.	.	.	.	.	.
8F#\	4dd#X\	4ff#\	.	.	.	.	.
8D#X\J	.	.	.	.	.	.	.
4BB/	4b\	4b\	.	.	.	.	.
=5	=5	=5	=5	=5	=5	=5	=5
4E\	4.cc\	4.ee\	.	2.r	.	2.r	.
4r	.	.	.	.	.	.	.
.	8b\	8dd\	.	.	.	.	.
4r	8b/L	8dd\L	.	.	.	.	.
.	8a/J	8cc\J	.	.	.	.	.
=6	=6	=6	=6	=6	=6	=6	=6
8r	8a/L	8cc\L	.	2.r	.	2.r	.
8E\	8g/J	8b\J	.	.	.	.	.
*tremolo	*	*	*	*	*	*	*
8E\L	2g/	2b/	.	.	.	.	.
8E\	.	.	.	.	.	.	.
8E\	.	.	.	.	.	.	.
8E\J	.	.	.	.	.	.	.
=7	=7	=7	=7	=7	=7	=7	=7
4E\	4g/	4b/	.	2.r	.	2.r	.
4r	4f#/	4a/	.	.	.	.	.
4E\	4e/	4g/	.	.	.	.	.
=8	=8	=8	=8	=8	=8	=8	=8
!LO:TX:t=P:problem=mixed beam	!	!	!	!	!	!	!
8B\L	4e/	4g/	.	2.r	.	2.r	.
8BB\J	.	.	.	.	.	.	.
8B\L	4d#X/	4f#X/	.	.	.	.	.
8A\	.	.	.	.	.	.	.
8G\	4r	4r	.	.	.	.	.
8F#\J	.	.	.	.	.	.	.
=9!|:	=9!|:	=9!|:	=9!|:	=9	=9	=9	=9
*	*	*^	*	*	*	*	*
*	*	*	*	*below	*	*	*	*
4E\	8r	8r	8ryy	.	2.r	.	8b\	Wi-
!	!	!	!	!	!	!	!	!LO:MO:mod=taj
.	8e/	8b/	8g\	pp	.	.	8ee\	-tay
*	*	*tremolo	*	*	*	*	*	*
4r	8e/L	8b/L	8g\L	.	.	.	4ee\	Je-
.	8e/	8b/	8g\	.	.	.	.	.
4r	8e/	8b/	8g\	.	.	.	4ff#\	-zu
.	8e/J	8b/J	8g\J	.	.	.	.	.
=10	=10	=10	=10	=10	=10	=10	=10	=10
4E\	8r	8r	8ryy	.	2.r	.	8gg\L	Skar-
.	8e/	8b/	8g\	.	.	.	8ff#\J	-bie
4r	8e/L	8b/L	8g\L	.	.	.	8ff#\L	dro-
.	8e/	8b/	8g\	.	.	.	8ee\J	.
4r	8e/	8b/	8g\	.	.	.	4ee\	-gi
.	8e/J	8b/J	8g\J	.	.	.	.	.
*	*	*v	*v	*	*	*	*	*
=11	=11	=11	=11	=11	=11	=11	=11
4BB/	8r	8r	.	8b\	o	8b\	o
!	!	!	!	!	!LO:MO:mod=jak	!	!LO:MO:mod=jak
.	8d#X/	8f#/ 8b	.	8dd#X\	iaK	8ff#\	iak
!	!	!	!	!	!LO:MO:mod=żal	!	!LO:MO:mod=żal
4r	8d#/L	8f#/ 8bL	.	4dd#\	zal	4ff#\	zal
.	8d#/	8f#/ 8b	.	.	.	.	.
4r	8d#/	8f#/ 8b	.	4ee\	prze-	4gg\	prze-
.	8d#/J	8f#/ 8bJ	.	.	.	.	.
=12	=12	=12	=12	=12	=12	=12	=12
4BB/	8r	8r	.	8ff#\	-ni-	8aa\	-ni-
!	!LO:TX:a:t=bis	!	!	!	!	!	!
.	8d#X/	8f#/ 8b	.	8ee\	-ka	8gg\	-ka
4r	8d#/L	8f#/ 8bL	.	8ee\L	Sro-	8gg\L	sro-
.	8d#/	8f#/ 8b	.	8dd#X\J	.	8ff#\J	.
!LO:TX:a:t=bis	!	!	!	!	!	!	!
4r	8d#/	8f#/ 8b	.	4dd#\	-gi	4ff#\	-gi
.	8d#/J	8f#/ 8bJ	.	.	.	.	.
=13	=13	=13	=13	=13	=13	=13	=13
4E\	8b\	8gg\L	.	8ee\	Ser-	8gg\L	Ser-
.	4b\	8ff#\J	.	8ee\	-ce	8ff#\J	-ce
!	!	!	!	!	!LO:MO:mod=z twe	!	!LO:MO:mod=z twe
4G\	.	4ee\	.	4ee\	ztwe-	4ee\	ztwe-
.	4b\	.	.	.	.	.	.
4E\	.	4gg\	.	4ee\	-go	4gg\	-go
.	8b\	.	.	.	.	.	.
=14	=14	=14	=14	=14	=14	=14	=14
8r	8ee\L	8gg\L	.	8ee\	wi-	8gg\	wi-
8B\L	8ee\J	8gg\J	.	8ee\	-dze-	8gg\	-dze-
!	!	!	!	!	!	!	!LO:MO:mod=nia
8F#\	4.dd#X\	4.ff#\	.	4dd#X\	-nia	4ff#\	-ńia
8D#X\J	.	.	.	.	.	.	.
4BB/	.	.	.	4r	.	4r	.
.	8b\	8b\	.	.	.	.	.
=15	=15	=15:|!	=15	=15	=15	=15	=15
*	*	*^	*	*	*	*	*
!LO:TX:t=P:problem=6 taktów zapisane powtórką	!LO:TX:t=P:problem=6 taktów zapisane powtórką	!LO:TX:t=P:problem=6 taktów zapisane powtórką	!	!	!LO:TX:t=2	!	!	!
4E\	8r	8r	8ryy	.	2.r	.	8b\	Wi-
!	!	!	!	!	!	!	!	!LO:MO:mod=taj
.	8e/	8b/	8g\	pp	.	.	8ee\	-tay
!	!	!	!	!	!	!	!LO:LB:g=original	!
4r	8e/L	8b/L	8g\L	.	.	.	4ee\	wszys-
.	8e/	8b/	8g\	.	.	.	.	.
4r	8e/	8b/	8g\	.	.	.	4ff#\	-tek
.	8e/J	8b/J	8g\J	.	.	.	.	.
=16	=16	=16	=16	=16	=16	=16	=16	=16
4E\	8r	8r	8ryy	.	2.r	.	8gg\	Krwią
.	8e/	8b/	8g\	.	.	.	8ff#\	Zbro-
4r	8e/L	8b/L	8g\L	.	.	.	8ff#\L	-czo-
.	8e/	8b/	8g\	.	.	.	8ee\J	.
4r	8e/	8b/	8g\	.	.	.	4ee\	-ny
.	8e/J	8b/J	8g\J	.	.	.	.	.
*	*	*v	*v	*	*	*	*	*
=17	=17	=17	=17	=17	=17	=17	=17
4BB/	8r	8r	.	8b\	Ska-	8b\	Ska-
.	8d#X/	8f#/ 8b	.	8dd#X\	-to-	8ff#\	-to-
4r	8d#/L	8f#/ 8bL	.	4dd#\	-wa-	4ff#\	-wa-
.	8d#/	8f#/ 8b	.	.	.	.	.
4r	8d#/	8f#/ 8b	.	4ee\	-ny	4gg\	-ny
.	8d#/J	8f#/ 8bJ	.	.	.	.	.
=18	=18	=18	=18	=18	=18	=18	=18
4BB/	8r	8r	.	8ff#\	i	8aa\	i
.	8d#X/	8f#/ 8b	.	8ee\	zmę-	8gg\	Zmę-
4r	8d#/L	8f#/ 8bL	.	8ee\L	-czo-	8gg\L	-czo-
.	8d#/	8f#/ 8b	.	8dd#X\J	.	8ff#\J	.
4r	8d#/	8f#/ 8b	.	4dd#\	-ny	4ff#\	-ny
.	8d#/J	8f#/ 8bJ	.	.	.	.	.
!	!	!	!	!LO:LB:g=original	!	!	!
=19	=19	=19	=19	=19	=19	=19	=19
4E\	8b\	8gg\L	.	8ee\	dla	8gg\	dla
.	4b\	8ff#\J	.	8ee\	swo-	8ff#\	swo-
!	!	!	!	!	!LO:MO:mod=je	!	!LO:MO:mod=je
4G\	.	4ee\	.	4ee\	-ie-	4ee\	-ie-
.	4b\	.	.	.	.	.	.
4E\	.	4gg\	.	4ee\	-go	4ff#\	-go
.	8b\	.	.	.	.	.	.
=20	=20	=20	=20	=20	=20	=20	=20
8r	8ee\L	8gg\L	.	8ee\	Stwo-	8gg\	Stwo-
8B\L	8ee\J	8gg\J	.	8ee\	-rze-	8gg\	-rze-
8F#\	4.dd#X\	4.ff#\	.	4dd#X\	-nia	4ff#\	-nia
8D#X\J	.	.	.	.	.	.	.
4BB/	.	.	.	4r	.	4r	.
.	8b\	8b\	.	.	.	.	.
!	!LO:LB:g=original	!	!	!	!	!	!
=21	=21	=21	=21	=21	=21	=21	=21
4D#X\	(16d#X/LL	16f#/LL	.	8f#X/	Wi-	8dd#X\	Wi-
.	16f#/	16b/	.	.	.	.	.
!	!	!	!	!	!LO:MO:mod=taj	!	!LO:MO:mod=taj
.	16d#X/	16f#/	.	8f#/	-tay	8dd#\	-tay
.	16f#/	16b/	.	.	.	.	.
4r	16d#X/	16f#/	.	4f#/	Je-	4dd#\	Je-
.	16f#/	16b/	.	.	.	.	.
.	16d#X/	16f#/	.	.	.	.	.
.	16f#/	16b/	.	.	.	.	.
4r	16d#X/	16f#/	.	4a\	-dy-	4ff#\	-dy-
.	16f#/	16b/	.	.	.	.	.
.	16d#X/	16f#/	.	.	.	.	.
.	16f#/)JJ	16b/JJ	.	.	.	.	.
!	!	!	!	!LO:LB:g=original	!	!LO:LB:g=original	!
=22	=22	=22	=22	=22	=22	=22	=22
4E\	(16e/LL	16g/LL	.	8g\	-ne	8ee\	-ne
.	16g/	16b/	.	.	.	.	.
.	16e/	16g/	.	8b\	Ko-	8gg\	Ko-
.	16g/	16b/	.	.	.	.	.
4r	16e/	16g/	.	8b\	-cha-	8gg\	-cha-
.	16g/	16b/	.	.	.	.	.
.	16e/	16g/	.	8a\	.	8ff#\	.
.	16g/	16b/	.	.	.	.	.
4r	16e/	16g/	.	4g\	-nie	4ee\	-nie
.	16g/	16b/	.	.	.	.	.
.	16e/	16g/	.	.	.	.	.
.	16g/)JJ	16b/JJ	.	.	.	.	.
!LO:LB:g=original	!	!	!	!	!	!	!
=23	=23	=23	=23	=23	=23	=23	=23
4D#X\	(16d#X/LL	16f#/LL	.	8f#/	Łas-	8dd#X\	Łas-
.	16f#/	16b/	.	.	.	.	.
.	16d#X/	16f#/	.	8f#/	-ka-	8dd#\	-ka-
.	16f#/	16b/	.	.	.	.	.
4r	16d#X/	16f#/	.	4f#/	-mi	4dd#X\	-mi
.	16f#/	16b/	.	.	.	.	.
.	16d#X/	16f#/	.	.	.	.	.
.	16f#/	16b/	.	.	.	.	.
4r	16d#X/	16f#/	.	4a/	sły-	4ff#\	Sły-
.	16f#/	16b/	.	.	.	.	.
.	16d#X/	16f#/	.	.	.	.	.
.	16f#/)JJ	16b/JJ	.	.	.	.	.
=24	=24	=24	=24	=24	=24	=24	=24
!	!	!	!	!	!LO:MO:mod=ną	!	!LO:MO:mod=ną
4E\	(16e/LL	(16g/LL	.	8g\	-nŏn-	8ee\	-non-
.	16g/	16b/	.	.	.	.	.
.	16e/	16g/	.	8b\	-cy	8gg\	-cy
.	16g/	16b/	.	.	.	.	.
4r	16e/	16g/	.	8b\	Pa-	8gg\	Pa-
.	16g/	16b/	.	.	.	.	.
.	16e/	16g/	.	8a\	.	8ff#\	.
.	16g/	16b/	.	.	.	.	.
4r	16e/	16g/	.	4g\	-nie	4ee\	-nie
.	16g/	16b/	.	.	.	.	.
.	16e/	16g/	.	.	.	.	.
.	16g/)JJ	16b/)JJ	.	.	.	.	.
!	!	!	!	!LO:LB:g=original	!	!	!
=25	=25	=25	=25	=25	=25	=25	=25
8E\L	4.ff#\	4.aa\	.	4.ff#\	dla	4.aa\	dla
8E\	.	.	.	.	.	.	.
8E\	.	.	.	.	.	.	.
8E\	8dd#X\	8ff#\	.	8dd#X\	po-	8ff#\	po-
!	!LO:TX:t=P:problem=mixed beam	!	!	!	!	!	!
8E\	8ee\L	8gg\L	.	8ee\	-cie-	8gg\	-cie-
8E\J	8g\J	8ee\J	.	8ee\	-chy	8ee\	-chy
=26	=26	=26	=26	=26	=26	=26	=26
8r	8ee\L	8gg\L	.	8ee\	grzesz-	8gg\	grzesz-
8BB/L	8ee\J	8gg\J	.	8ee\	-ne-	8gg\	-ne-
8D#X/	4.dd#X\	4.ff#\	.	4dd#X\	-go	4ff#\	-go
8F#/J	.	.	.	.	.	.	.
!LO:TX:t=P:problem=mixed beam	!	!	!	!	!	!	!
8B\L	.	.	.	4r	.	4r	.
!LO:TX:t=P:problem=skreślony takt	!	!	!	!	!	!	!
8BB/J	8b\	8b\	.	.	.	.	.
=27	=27	=27	=27	=27	=27	=27	=27
4D#X\	(16d#X/LL	(16f#/LL	.	8f#/	głos-	8dd#X\	głoś-
.	16f#/	16b/	.	.	.	.	.
.	16d#X/	16f#/	.	8f#/	-ne	8dd#\	-ne
.	16f#/	16b/	.	.	.	.	.
4r	16d#X/	16f#/	.	4f#/	łask	4dd#\	łask
.	16f#/	16b/	.	.	.	.	.
.	16d#X/	16f#/	.	.	.	.	.
.	16f#/	16b/	.	.	.	.	.
4r	16d#X/	16f#/	.	4a\	twych	4ff#\	twych
.	16f#/	16b/	.	.	.	.	.
.	16d#X/	16f#/	.	.	.	.	.
.	16f#/)JJ	16b/)JJ	.	.	.	.	.
=28	=28	=28	=28	=28	=28	=28	=28
4E\	(16e/LL	(16g/LL	.	8g\	sły-	8ee\	sły-
.	16g/	16b/	.	.	.	.	.
.	16e/	16g/	.	8b\	-nie	8gg\	-nie
.	16g/	16b/	.	.	.	.	.
!	!	!	!	!	!	!LO:LB:g=original	!
4r	16e/	16g/	.	8b\	e-	8gg\L	e-
.	16g/	16b/	.	.	.	.	.
.	16e/	16g/	.	8a\	.	8ff#\J	.
.	16g/	16b/	.	.	.	.	.
4r	16e/	16g/	.	4g\	-cho	4ee\	-cho
.	16g/	16b/	.	.	.	.	.
.	16e/	16g/	.	.	.	.	.
.	16g/)JJ	16b/)JJ	.	.	.	.	.
=29	=29	=29	=29	=29	=29	=29	=29
4D#X\	(16d#X/LL	(16f#/LL	.	8f#/	Ska-	8dd#X\	Ska-
.	16f#/	16b/	.	.	.	.	.
.	16d#X/	16f#/	.	8f#/	-to-	8dd#\	-to-
.	16f#/	16b/	.	.	.	.	.
4r	16d#X/	16f#/	.	4f#/	-wa-	4dd#\	-wa-
.	16f#/	16b/	.	.	.	.	.
.	16d#X/	16f#/	.	.	.	.	.
.	16f#/	16b/	.	.	.	.	.
4r	16d#X/	16f#/	.	4a\	-na	4ff#\	-na
.	16f#/	16b/	.	.	.	.	.
.	16d#X/	16f#/	.	.	.	.	.
.	16f#/)JJ	16b/)JJ	.	.	.	.	.
=30	=30	=30	=30	=30	=30	=30	=30
4E\	(16e/LL	(16g/LL	.	8g\	Serc	8ee\	Serc
.	16g/	16b/	.	.	.	.	.
.	16e/	16g/	.	8b\	po-	8gg\	po-
.	16g/	16b/	.	.	.	.	.
4r	16e/	16g/	.	8b\	-cie-	8gg\	-cie-
.	16g/	16b/	.	.	.	.	.
.	16e/	16g/	.	8a\	.	8ff#\	.
.	16g/	16b/	.	.	.	.	.
4r	16e/	16g/	.	4g\	-cho	4ee\	-cho
.	16g/	16b/	.	.	.	.	.
.	16e/	16g/	.	.	.	.	.
.	16g/)JJ	16b/)JJ	.	.	.	.	.
*	*	*Xtremolo	*	*	*	*	*
*	*Xtremolo	*	*	*	*	*	*
=31	=31	=31	=31	=31	=31	=31	=31
8E\L	4.ff#\	4.aa\	.	4.ff#\	dla	4.aa\	dla
8E\	.	.	.	.	.	.	.
8E\	.	.	.	.	.	.	.
8E\	8dd#X\	8ff#\	.	8dd#X\	po-	8ff#\	po-
!	!LO:TX:t=P:problem=mixed beam	!	!	!	!	!	!
8E\	8ee\L	8gg\L	.	8ee\	-cie-	8gg\	-cie-
8E\J	8g\J	8ee\J	.	8ee\	-chy	8ee\	-chy
*Xtremolo	*	*	*	*	*	*	*
!	!	!	!	!LO:LB:g=original	!	!	!
=32	=32	=32	=32	=32	=32	=32	=32
8B\L	8ee\L	8gg\L	.	8ee\	grzesz-	8gg\	grzesz-
8B\	8ee\J	8gg\J	.	8ee\	-ne-	8gg\	-ne-
8F#\	4dd#X;\	4ff#\	.	4dd#X\	-go.	4ff#\	-go
8D#X\J	.	.	.	.	.	.	.
4BB;/	4r	4r;	.	4r	.	4r	.
==	==	==	==	==	==	==	==
*-	*-	*-	*-	*-	*-	*-	*-
!!!RDF**dynam: p = p.
!!!RDF**dynam: pp = pp.
!!!RDF**dynam: f = for.
!!!RDF**kern: > = above
!!!RDF**kern: < = below
!!!system-decoration: [(s1,s2)][(s3,s4)]s5
!!!ENC: Kamil Watkowski
!!!END: 2020-12-06
!!!ENC: Urszula Świątek
!!!END: 2022-03-27
!!!YEC: Copyright 2022 Narodowy Instytut Fryderyka Chopina (https://polishscores.org)
!!!YEM: License CC-BY-4.0 (https://creativecommons.org/licenses/by/4.0)
